X:1
T:Ave Maria
T:Ave Maria
T:Johannes Brassart
T:© 2011 by Paul R Marchesano. May be freely copied for nonprofit use.
T:© 2011 by Paul R Marchesano. May be freely copied for nonprofit use.
T:© 2011 by Paul R Marchesano. May be freely copied for nonprofit use.
T:© 2011 by Paul R Marchesano. May be freely copied for nonprofit use.
T:© 2011 by Paul R Marchesano. May be freely copied for nonprofit use.
T:© 2011 by Paul R Marchesano. May be freely copied for nonprofit use.
T:© 2011 by Paul R Marchesano. May be freely copied for nonprofit use.
C:Johannes Brassart
Z:© 2011 by Paul R Marchesano. May be freely copied for nonprofit use.
%%score [ 1 2 [ 3 4 ] ]
L:1/8
Q:1/4=120
M:3/2
K:C
V:1 treble nm="Alto 1" snm="A 1"
V:2 treble nm="Alto 2" snm="A 2"
V:3 treble-8 nm="Tenor 1" snm="T 1"
V:4 treble-8 nm="Tenor 2" snm="T 2"
V:1
 A12- | A8 G2 F2 | E8 A4 | G8 E4 | C2 E4 D2 ^C4 | D6 z2 z2 A2 | A4 _B4 A2 F2 | E2 G4 F4 E2 | %8
w: A-|||* ve|Ma- ri- * *|a, gra-|ti- * a _|ple- * * *|
 F6 A2 A2 A2 | c4 _B2 A4 F2 | E2 c2 B2 A2 G4 | A12 | z12 | z12 | z12 | z12 | z12 | z12 | z12 | %19
w: na. Do- mi- nus|te- * * *||cum,||||||||
 z12 | z12 | z12 | z12 | z12 | F12 | A8 A4 | _B4 A2 G4 F2 | E4 F2 E4 D2 | C12 | D6 A4 G2 | %30
w: |||||Et|tu- a|gra- ti- a sit|me- * * *|cum.|Glo- ri- a|
 F2 D4 F4 E2- | E2 C4 D4 ^C2 | D6 z2 z4 | A8- A2 G2 | E2 C2 DE F4 E2 | F2 G A2 _B A2 G F2 G | E12 | %37
w: mu- li- * e-||rum,|gem- * ma|vir- gi- * * * *||num,|
 A6 A6 | _B6 B2 B4 | A6 z2 z4 | E4 F2 E2 F2 D2 | E12 | F4 A4 c4 | A2 _B4 A4 G2 | A8 z4 | E6 E4 E2 | %46
w: stel- la|sa- cer- do-|tum,|ro- sa mar- ti- *|rum,|do- mi- na|a- po- sto- lo-|rum,|re- gi- na|
 F2 E2 D4 E2 ^C2 | !fermata!D12 || E8 F2 G2 | A12 | _B4 A2 B4 c2 | A8 c2 _B2 | A4 _B2 A4 G2 | F12 | %54
w: an- * ge- lo- *|rum,|foe- cun- *||||* * di- *|tas|
 G8 B4- | B2 A4 G4 ^F2 | G12 | z12 | C4 D4 E4- | E8 F2 G2 | A12- | A12 | F12 | E8 A2 G2 | %64
w: _ coe-|* lo- * *|rum,||Je- su De-|* i _|ma-||||
 E4 G2 F2 E4 | D4 z4 z4 | G8 F4 | A4 G4 F4 | E12- | E12 | D4 ^C8 | D12 |] %72
w: |ter.|A- *|||||men.|
V:2
 z12 | z12 | z12 | z12 | z12 | z12 | z12 | z12 | z12 | z12 | z12 | z12 | A12- | A8 G2 F2 | E8 A4 | %15
w: ||||||||||||A-|||
 G8 E4 | C2 E4 D2 ^C4 | D6 z2 z2 A2 | A4 _B4 A2 F2 | E2 G4 F4 E2 | F6 A2 A2 A2 | c4 _B2 A4 F2 | %22
w: * ve|Ma- ri- * *|a, gra-|ti- * a _|ple- * * *|na. e- go pec-|ca- * tor su-|
 E2 c2 B2 A2 G4 | A12 | A6 A4 A2 | F2 G2 A4 F4 | D2 E2 F2 G2 F2 ED | C4 D2 E4 FG | A4 A2 A2 A2 A2 | %29
w: spi- * * ro ad|te.|n- cli- nas|ad _ _ me,|in- * ter- ce- * * *|de pro me ad _|di- lec- tis- si- mum|
 A6 D4 D2 | A8 _B4 | A2 E2 FG A2 G4 | A12 | z12 | A6 _B4 B2 | c4 _B4 A4 | G6 G6 | E12 | z12 | %39
w: fi- li- um|tu- *||um,||ut mun- det|me- * a|pec- ca-|tis,||
 C4 C4 C4 | A4 _B2 c2 A4 | G12 | F4 F4 A4 | G2 F2 E4 D4 | E8 A4 | c2 B2 A4 F2 G2 | A8 G4 | %47
w: li- be- ret|me a poe- *|nis,|ut sal- vet|me _ in coe-|lis, ut|vi- * vam cum _|be- a-|
 !fermata!A12 || A4 A4 A4 | E8 F4 | G6 D4 E2 | F4 G2 F2 E2 D2 | C4 z4 F4 | A4 c4 A2 F2 | E4 C4 D4 | %55
w: tis.|Be- ne- di-|cta tu|in mu- li-|e- * * ri- *|bus, et|be- ne- di- ctus|Je- sus, dul-|
 E4 G4 A4 | B12- | B12 | A4 A4 D4 | C8 C4 | D12 | z12 | A8 B4 | c6 B2 c2 A2 | G12 | F8 G4 | %66
w: cis- si- mus|fru-||ctus ven- tris|tu- *|i.||A- *||||
 _B8 A4 | D4 E6 F2 | G12- | G12 | F4 G8 | A12 |] %72
w: |||||men.|
V:3
 d12- | d12 | c8- c2 d2 | e4 c4 B2 A2 | G12 | A12 | D12 | C4 c2 c2 _B4 | c12- | c12 | A4 e4 d4 | %11
w: A-||* * ve|Ma- * * *|ri-||a,|gra- * ti- *|a|_|ple- * *|
 e12 | d12- | d12 | c8- c2 d2 | e4 c4 B2 A2 | G12 | A12 | D12 | C4 c2 c2 _B4 | c12- | c12 | %22
w: na.|A-||* * ve|Ma- * * *|ri-||a,|gra- * ti- *|a|_|
 A4 e4 d4 | e12 | A12 | c12 | _B12 | c12 | F12 | A12 | z12 | A8 G4 | F6 A6 | d12 | c8 _B4 | c12 | %36
w: ple- * *|na.|Do-|||||||mi- *|||||
 z12 | A12 | G12 | c12- | c12 | C12 | z12 | F4 c4 d4 | c12- | c12 | d2 c2 A4 G4 | !fermata!A12 || %48
w: |||||nus||te- * *||||cum,|
 c12- | c12 | d12 | A12 | A12 | D12 | C8 G4 | A4 d4 c4 | (d12 | d12) | z12 | G12 | A12- | A12 | %62
w: be-||ne-|di-||cta|tu in|mu- li- e-|ri-|bus,||et|be-||
 D12 | A12 | E12 | D12 | d8 c4 | d6 c4 B2 | c12- | c12 | A4 G8 | A12 |] %72
w: ne-|di-|ctus|_|fru- ctus|ven- * tris|tu-||i, Je-|sus.|
V:4
 D12- | D12 | A12 | E12- | E12 | D12 | d8 A4 | c4 _B4 G4 | F12- | F12 | c6 B6 | A12 | D12- | D12 | %14
w: A-||ve|Ma-||ri-|a, gra-|* * ti-|a|_|ple- *|na,|A-||
 A12 | E12- | E12 | D12 | d8 A4 | c4 _B4 G4 | F12- | F12 | c6 B6 | A12 | F12- | F12 | G12 | A12- | %28
w: ve|Ma-||ri-|a, gra-|* * ti-|a|_|ple- *|na,|Do-||||
 A12 | D12 | F8 G4 | A4 F4 E4 | D12- | D12 | A6 G6 | F12 | c12- | c12 | d12 | A12- | A12 | c12 | %42
w: ||mi- *||||||nus|_||||te-|
 d8 A4 | d4 c4 _B4 | A12- | A12 | D6 E6 | !fermata!D12 || A12- | A12 | G12 | F12- | F12 | d12 | %54
w: |||||cum,|be-||ne-|di-||cta|
 e8 d4 | c4 _B4 A4 | G12- | G12 | A4 F8 | E12 | D12- | D12 | d12 | c12- | c12 | d12 | G8 A4 | %67
w: tu in|mu- * li-|e-||ri- bus,|_|be-||ne-|di-|ctus|_|fru- ctus|
 F4 E4 D4 | C12- | C12 | D4 E8 | D12 |] %72
w: ven- tris tu-|i,|_|Je- *|sus.|

